X:0684
T:L'abbe'
C:Composed by a Young Lady.
M:2/4
L:1/8
Q:1/4=104
P:ABA % Aird uses a da capo
I: :| || DC
Z:Jack Campin * www.campin.me.uk * 2009
K:D
P:A
A|d2d2|de/f/ ff|geee|afdA|d2d2|de/f/ ff|ge`dc|d3:|
P:B
z|e2e2|g2    f2|e2f2|g2f2|AABB|cc````dd|BB^GG|A3:|
<end>
<start>
